X: 1
T: South Uist Air
O: As presented by Calum Pasqua
C:
S: printed copy of unknown origin in Concord Slow Scottish Session collection
R: waltz, air
Z: 2015 John Chambers <jc:trillian.mit.edu>
M: 3/4
L: 1/8
K: Em
[|\
B4 E2 | E4 F2 | G4 A2 | FE D4 | B4 E2 | E4 F2 | A4 F2 | F2 E4 |
B4 E2 | E4 F2 | G4 A2 | FE D4 | E4 F2 | B4 A2 | G<D- D4 | E6 ||
E4 F2 | G4 A2 | B<d- d2 A2 | BA G4 | B4 E2 | B4 F2 | A4 F2 | F2 E3 D |
{D}E4 F2 | G4 AB | A4 G2 | F<d- d4 | B4 E2 | E4 D2 | G4 F2 | F2 E4 |]
